!!!COM: Music21
!!!OTL: mazurka_Major-Cockscombs
!!!OMV: mazurka_Major-Cockscombs
**kern
*clefG2
*k[f#c#]
*D:
*M3/4
=1
8f#L
8gJ
=
4.a
8dd
8cc#L
8ddJ
=
2a
8f#L
8aJ
=
8gL
8bJ
8eL
8f#J
8gL
8aJ
=
8cc#L
8bJ
8aL
8gJ
8f#L
8gJ
=
4.a
8dd
8cc#L
8ddJ
=
4a
4f#
4d
=
8eL
8f#J
8gL
8aJ
8bL
8cc#J
!!linebreak:original
=
2dd
4ryy
=||
*M3/4
8f#L
8gJ
=
4.a
8dd
8cc#L
8ddJ
=
2a
8f#L
8aJ
=
8gL
8bJ
8eL
8f#J
8gL
8aJ
=
8cc#L
8bJ
8aL
8gJ
8f#L
8gJ
=
4.a
8dd
8cc#L
8ddJ
=
4a
4f#
4d
!!linebreak:original
=
8eL
8f#J
8gL
8aJ
8bL
8cc#J
=
2dd
4ryy
=||
8eeL
8ff#J
2ryy
=
4gg
8bL
8ggJ
8bL
8ggJ
=
4ff#
8ddL
8ff#J
8aL
8ff#J
=
8eeL
8ddJ
8cc#L
8bJ
8aL
8gJ
=
8f#L
8gJ
8aL
8bJ
4a
=
4gg
8bL
8ggJ
8bL
8ggJ
!!linebreak:original
=
4ff#
8ddL
8ff#J
8aL
8ff#J
=
8eeL
8ddJ
8cc#L
8bJ
12aL
12b
12cc#J
=
2dd
4ryy
=||
8eeL
8ff#J
2ryy
=
4gg
8bL
8ggJ
8bL
8ggJ
=
4ff#
8ddL
8ff#J
8aL
8ff#J
=
8eeL
8ddJ
8cc#L
8bJ
8aL
8gJ
=
8f#L
8gJ
8aL
8bJ
4a
!!linebreak:original
=
4gg
8bL
8ggJ
8bL
8ggJ
=
4ff#
8ddL
8ff#J
8aL
8ff#J
=
8eeL
8ddJ
8cc#L
8bJ
12aL
12b
12cc#J
=
2dd
4ryy
=||
*-
